X: 30713
T: HUMORS OF LIFTIVAIN
O: Irish Melody
%R: jig
B: Elias Howe "The Musician's Companion" Part 3 1844 p.71 #3
S: http://imslp.org/wiki/The_Musician's_Companion_(Howe,_Elias)
Z: 2015 John Chambers <jc:trillian.mit.edu>
M: 6/8
L: 1/8
K: Am
% - - - - - - - - - - - - - - - - - - - - - - - - -
|:\
"A Minor"\
EAA (AGA) | (BAB) (GAB) |\
eAA AGA | BAB g3 |\
(eg).g (de).e | (Bd).d (GA).B |\
eAA (AGA) | (BAB) g3 |\
(eg).g dff | BE^G | A2 :|
|: B |\
eaa aga | bab g3 |\
aga e3 | gfg d3 |\
.e(e/f/e/d/) .B(B/c/B/G/) | .A(A/B/A/G/) E3 |\
EAA (AGA) | (BAB) g3 |\
(eg).g (de).e | BE^G | A2 :|
% - - - - - - - - - - - - - - - - - - - - - - - - -
